svg/system/tool_line.svg

<?xml version="1.0" encoding="UTF-8"?>
<svg width="24px" height="24px" viewBox="0 0 24 24" version="1.1" xmlns="http://www.w3.org/2000/svg" xmlns:xlink="http://www.w3.org/1999/xlink">
    <title>tool_line</title>
    <g id="页面-1" stroke="none" stroke-width="1" fill="none" fill-rule="evenodd">
        <g id="System" transform="translate(-1008.000000, -96.000000)">
            <g id="tool_line" transform="translate(1008.000000, 96.000000)">
                 <path d="M24,0 L24,24 L0,24 L0,0 L24,0 Z M12.5934901,23.257841 L12.5819402,23.2595131 L12.5108777,23.2950439 L12.4918791,23.2987469 L12.4918791,23.2987469 L12.4767152,23.2950439 L12.4056548,23.2595131 C12.3958229,23.2563662 12.3870493,23.2590235 12.3821421,23.2649074 L12.3780323,23.275831 L12.360941,23.7031097 L12.3658947,23.7234994 L12.3769048,23.7357139 L12.4804777,23.8096931 L12.4953491,23.8136134 L12.4953491,23.8136134 L12.5071152,23.8096931 L12.6106902,23.7357139 L12.6232938,23.7196733 L12.6232938,23.7196733 L12.6266527,23.7031097 L12.609561,23.275831 C12.6075724,23.2657013 12.6010112,23.2592993 12.5934901,23.257841 L12.5934901,23.257841 Z M12.8583906,23.1452862 L12.8445485,23.1473072 L12.6598443,23.2396597 L12.6498822,23.2499052 L12.6498822,23.2499052 L12.6471943,23.2611114 L12.6650943,23.6906389 L12.6699349,23.7034178 L12.6699349,23.7034178 L12.678386,23.7104931 L12.8793402,23.8032389 C12.8914285,23.8068999 12.9022333,23.8029875 12.9078286,23.7952264 L12.9118235,23.7811639 L12.8776777,23.1665331 C12.8752882,23.1545897 12.8674102,23.1470016 12.8583906,23.1452862 L12.8583906,23.1452862 Z M12.1430473,23.1473072 C12.1332178,23.1423925 12.1221763,23.1452606 12.1156365,23.1525954 L12.1099173,23.1665331 L12.0757714,23.7811639 C12.0751323,23.7926639 12.0828099,23.8018602 12.0926481,23.8045676 L12.108256,23.8032389 L12.3092106,23.7104931 L12.3186497,23.7024347 L12.3186497,23.7024347 L12.3225043,23.6906389 L12.340401,23.2611114 L12.337245,23.2485176 L12.337245,23.2485176 L12.3277531,23.2396597 L12.1430473,23.1473072 Z" id="MingCute" fill-rule="nonzero"></path>
                <path d="M6.79772,2.88434 C9.31766,1.87546 12.3088,2.38988 14.3524,4.43351 C16.2521,6.33317 16.8304,9.05158 16.0921,11.4491 L20.4864,15.1673 C22.1658,16.5884 22.272,19.1413 20.7164,20.697 C19.1607,22.2526 16.6078,22.1464 15.1867,20.467 L11.4685,16.0727 C9.07099,16.811 6.35258,16.2327 4.45292,14.333 C2.40914,12.2892 1.8948,9.2978 2.90398,6.77775 C3.26192,5.88393 4.38341,5.77096 4.96734,6.40525 L8.1686,9.88261 L9.61513,9.59504 L9.90431,8.14649 L6.42572,4.94827 C5.79081,4.36453 5.90344,3.24238 6.79772,2.88434 Z M8.80475,4.41872 L11.5684,6.95959 C11.8896,7.25497 12.0336,7.69652 11.9482,8.1245 L11.4784,10.4777 C11.3795,10.9732 10.9919,11.3605 10.4963,11.459 L8.14567,11.9263 C7.71826,12.0113 7.27745,11.8675 6.9823,11.5469 L4.43834,8.78355 C4.26156,10.2558 4.73873,11.7904 5.86713,12.9188 C7.31902,14.3707 9.44333,14.7444 11.2422,14.0342 C11.7261,13.8431 12.304,13.9638 12.6638,14.3891 L16.7135,19.1751 C17.3788,19.9613 18.5739,20.011 19.3022,19.2827 C20.0304,18.5545 19.9807,17.3594 19.1945,16.6941 L14.4085,12.6444 C13.9832,12.2846 13.8625,11.7067 14.0536,11.2228 C14.7639,9.42392 14.3901,7.29961 12.9382,5.84772 C11.8103,4.71978 10.2765,4.24253 8.80475,4.41872 Z" id="形状" fill="#09244B"></path>
            </g>
        </g>
    </g>
</svg>

<svg xmlns="http://www.w3.org/2000/svg" width="24" height="24"><g fill="none" fill-rule="evenodd"><path d="M24 0v24H0V0h24ZM12.593 23.258l-.011.002-.071.035-.02.004-.014-.004-.071-.035c-.01-.004-.019-.001-.024.005l-.004.01-.017.428.005.02.01.013.104.074.015.004.012-.004.104-.074.012-.016.004-.017-.017-.427c-.002-.01-.009-.017-.017-.018Zm.265-.113-.013.002-.185.093-.01.01-.003.011.018.43.005.012.008.007.201.093c.012.004.023 0 .029-.008l.004-.014-.034-.614c-.003-.012-.01-.02-.02-.022Zm-.715.002a.023.023 0 0 0-.027.006l-.006.014-.034.614c0 .012.007.02.017.024l.015-.002.201-.093.01-.008.004-.011.017-.43-.003-.012-.01-.01-.184-.092Z"/><path fill="#09244B" d="M6.798 2.884a7.002 7.002 0 0 1 9.294 8.565l4.394 3.718a3.76 3.76 0 1 1-5.3 5.3l-3.717-4.394a7.002 7.002 0 0 1-8.565-9.295c.358-.894 1.48-1.007 2.063-.373L8.17 9.883l1.446-.288.29-1.449-3.48-3.198c-.634-.583-.522-1.706.373-2.064ZM8.805 4.42l2.763 2.54c.322.296.466.738.38 1.165l-.47 2.354a1.25 1.25 0 0 1-.982.981l-2.35.467a1.25 1.25 0 0 1-1.164-.38L4.438 8.785a5.002 5.002 0 0 0 6.804 5.25 1.257 1.257 0 0 1 1.422.355l4.05 4.786a1.76 1.76 0 1 0 2.48-2.48l-4.785-4.05a1.257 1.257 0 0 1-.355-1.422 5.001 5.001 0 0 0-5.25-6.804Z"/></g></svg>
